X:2156
T:Brides Bells,The. GS.011
M:2/4
L:1/8
S:George Spencer m/s, Leeds,1831
R:Air
O:England
A:Leeds
H:1831
Z:vmp.Cherri Graebe
K:E major
e | dcBA | GFEe | dcBA | (G2E)e | dcBA | GFEe | dfF^A | "cr"B3 :||:!
e | cAFd | BGEe | cAFB | (G2E)e | cAFd | BGEG | AcFd | e2 "cr"E :||


